anadea-new/source/img/anadea-name.svg

<svg width="68" height="8" viewBox="0 0 68 8" fill="none" xmlns="http://www.w3.org/2000/svg">
<path d="M3.11155 0L0 7.68701H1.62863L2.29219 5.97449H5.36227L6.02582 7.68701H7.69593L4.58438 0H3.11155ZM2.86159 4.48906L3.82667 2.01452L4.79174 4.48906H2.86159Z" fill="white"/>
<path fill-rule="evenodd" clip-rule="evenodd" d="M17.9846 4.73174L14.5064 0H13V7.68701H14.6119V2.79849L18.2082 7.68701H19.5965V0H17.9846V4.73174Z" fill="white"/>
<path d="M28.1109 0L25 7.68701H26.6289L27.2925 5.97449H30.3619L31.0267 7.68701H32.6959L29.585 0H28.1109ZM27.8631 4.48906L28.8261 2.01452L29.7913 4.48906H27.8631Z" fill="white"/>
<path d="M39.7919 0H37V7.68701H39.7919C42.0419 7.68701 43.5965 6.00603 43.5965 3.84174C43.5965 1.65858 42.0419 0 39.7919 0ZM39.7919 6.15927H38.5734V1.52538H39.7919C41.0811 1.52538 41.9501 2.48139 41.9501 3.84174C41.9501 5.22566 41.0811 6.15927 39.7919 6.15927Z" fill="white"/>
<path fill-rule="evenodd" clip-rule="evenodd" d="M50.5782 4.56788H53.9799V3.0649H50.5782V1.50534H54.4447V0H49V7.68701H54.4971V6.18285H50.5782V4.56788Z" fill="white"/>
<path d="M64.585 0H63.1131L60 7.68701H61.6277L62.2936 5.97449H65.3619L66.0278 7.68701H67.6959L64.585 0ZM62.8631 4.48906L63.8261 2.01452L64.7902 4.48906H62.8631Z" fill="white"/>
</svg>

<svg width="68" height="8" fill="none" xmlns="http://www.w3.org/2000/svg"><path d="M3.112 0L0 7.687h1.629l.663-1.713h3.07l.664 1.713h1.67L4.584 0H3.112zm-.25 4.49l.965-2.475.965 2.474h-1.93z" fill="#fff"/><path fill-rule="evenodd" clip-rule="evenodd" d="M17.985 4.732L14.506 0H13v7.687h1.612V2.798l3.596 4.889h1.389V0h-1.612v4.732z" fill="#fff"/><path d="M28.11 0L25 7.687h1.629l.663-1.713h3.07l.665 1.713h1.669L29.585 0h-1.474zm-.247 4.49l.963-2.475.965 2.474h-1.928zM39.792 0H37v7.687h2.792c2.25 0 3.804-1.681 3.804-3.845C43.596 1.659 42.042 0 39.792 0zm0 6.16h-1.219V1.524h1.219c1.29 0 2.158.956 2.158 2.317 0 1.384-.869 2.317-2.158 2.317z" fill="#fff"/><path fill-rule="evenodd" clip-rule="evenodd" d="M50.578 4.568h3.402V3.065h-3.402v-1.56h3.867V0H49v7.687h5.497V6.183h-3.919V4.568z" fill="#fff"/><path d="M64.585 0h-1.472L60 7.687h1.628l.666-1.713h3.068l.666 1.713h1.668L64.585 0zm-1.722 4.49l.963-2.475.964 2.474h-1.927z" fill="#fff"/></svg>
